X:1
T:Title
L:1/8
M:4/4
I:linebreak $
K:A
V:1 treble nm="Voice"
V:1
"E" e2 ge bege |"D" fedf afdf |"E" e2 ge bege |"D" fedf"E" e2 Be :|"E" e2 ge bege |"D" fedf afdf | %6
"Em" ef=ga bfaf |"D" fedf"Em" e4 ||[K:D]"Em" EFGA BGFE |"D" DAFD ADFD | z AFA"Em" GEED | %11
 EFGA"Bm" BABc |"D" defd"Em" e4 |] %13
